X:55
T:Rosewood, The
R:jig
D:Boys of the Lough: Sweet Rural Shade
Z:id:hn-jig-55
M:6/8
K:A
agf efg | aed cBA | aga cde | fdB B2g |
agf efg | aed cBA | def Bcd |1 cAG A2g :|2 cAG Aed ||
|: cde Ace | fdc dfe | ^def B^df | gee ebg |
agf edc | fed cBA | def Bcd |1 cAG Aed :|2 cAG A2g ||
P:variations
|: aga efg | aed cBA | aga cde | fdB bag |
aga efg | aed cBA | dfd Bcd |1 cAG A2g :|2 cAG A2e ||
|: Ace Ace | fdc d2c | B^df B^df | ge^d efg |
aga efg | aed cBA | dfd Bcd |1 cAG A2B :|2 cAG A2g ||
<end>
<start>
